static/images/step_1_ua.svg

<svg width="196" height="197" viewBox="0 0 196 197" fill="none" xmlns="http://www.w3.org/2000/svg">
<g filter="url(#filter0_d_1114_262)">
<path d="M189.589 98.596C189.612 116.504 184.189 134.016 174.007 148.917C163.824 163.818 149.34 175.437 132.386 182.306C115.432 189.174 96.7701 190.983 78.7621 187.503C60.7541 184.023 44.2088 175.411 31.2197 162.756C18.2306 150.101 9.38136 133.972 5.79151 116.409C2.20166 98.8471 4.03257 80.6407 11.0526 64.0937C18.0726 47.5467 29.9663 33.4027 45.2288 23.4513C60.4913 13.4998 78.4367 8.188 96.7947 8.18799V98.4556L189.589 98.596Z" fill="url(#paint0_linear_1114_262)"/>
</g>
<path d="M170.763 110.584C177.405 70.4715 149.619 32.6757 108.701 26.1645C67.7827 19.6533 29.2276 46.8925 22.5856 87.0049C15.9437 127.117 43.73 164.913 84.6482 171.424C125.566 177.935 164.121 150.696 170.763 110.584Z" fill="white"/>
<path d="M153.389 0.00725975C144.871 0.829459 136.879 4.47676 130.695 10.3632C124.511 16.2497 120.495 24.0336 119.293 32.4644C119.293 32.6058 119.293 32.7754 119.293 32.9168C118.841 36.9876 116.802 40.7196 113.614 43.3102C110.426 45.9008 106.344 47.1433 102.245 46.7704C99.0416 46.4585 95.8156 46.4585 92.6125 46.7704C82.3687 47.5377 72.589 51.3333 64.5284 57.6702C56.4679 64.007 50.4942 72.5961 47.374 82.335C44.2538 92.0739 44.1295 102.518 47.0169 112.328C49.9044 122.138 55.6719 130.865 63.5794 137.391C71.4868 143.916 81.1734 147.941 91.3961 148.949C101.619 149.958 111.911 147.904 120.952 143.05C129.993 138.197 137.371 130.767 142.138 121.712C146.905 112.658 148.844 102.392 147.706 92.2331C147.332 88.1544 148.58 84.0924 151.184 80.9202C153.787 77.748 157.538 75.719 161.629 75.2694H162.084C171.953 73.9589 180.912 68.845 187.03 61.0283C193.148 53.2116 195.938 43.3171 194.798 33.4744C193.659 23.6316 188.681 14.6276 180.936 8.40015C173.192 2.17271 163.3 -0.780224 153.389 0.1769V0.00725975Z" fill="url(#paint1_linear_1114_262)"/>
<path d="M91.2078 110.602V112.822C91.2078 113.886 91.102 114.794 90.8906 115.546C90.6854 116.292 90.3868 116.899 89.9951 117.365C89.6033 117.832 89.1337 118.174 88.5864 118.391C88.0454 118.609 87.439 118.718 86.7674 118.718C86.2325 118.718 85.735 118.649 85.2748 118.513C84.8208 118.376 84.4104 118.161 84.0435 117.869C83.6765 117.577 83.3625 117.2 83.1013 116.74C82.8463 116.274 82.6473 115.717 82.5043 115.07C82.3674 114.424 82.299 113.674 82.299 112.822V110.602C82.299 109.532 82.4047 108.631 82.6162 107.897C82.8276 107.157 83.1293 106.557 83.5211 106.096C83.9129 105.63 84.3793 105.291 84.9203 105.08C85.4676 104.868 86.0771 104.762 86.7487 104.762C87.2898 104.762 87.7873 104.831 88.2413 104.968C88.7015 105.098 89.112 105.307 89.4727 105.593C89.8396 105.879 90.1505 106.252 90.4055 106.712C90.6667 107.166 90.8657 107.716 91.0025 108.363C91.1393 109.004 91.2078 109.75 91.2078 110.602ZM88.9596 113.139V110.266C88.9596 109.725 88.9285 109.249 88.8663 108.839C88.8041 108.422 88.7108 108.071 88.5864 107.785C88.4683 107.493 88.319 107.256 88.1387 107.076C87.9583 106.889 87.7531 106.756 87.523 106.675C87.2929 106.588 87.0348 106.544 86.7487 106.544C86.4005 106.544 86.0895 106.613 85.8159 106.749C85.5422 106.88 85.3121 107.091 85.1256 107.384C84.939 107.676 84.796 108.062 84.6965 108.54C84.6032 109.013 84.5565 109.588 84.5565 110.266V113.139C84.5565 113.687 84.5876 114.169 84.6498 114.585C84.712 115.002 84.8053 115.36 84.9297 115.658C85.054 115.95 85.2033 116.193 85.3774 116.386C85.5578 116.572 85.763 116.709 85.9931 116.796C86.2294 116.883 86.4875 116.927 86.7674 116.927C87.1219 116.927 87.4359 116.858 87.7096 116.722C87.9832 116.585 88.2133 116.367 88.3999 116.069C88.5864 115.764 88.7264 115.369 88.8197 114.884C88.9129 114.399 88.9596 113.817 88.9596 113.139ZM99.3516 104.902V118.531H97.1034V107.57L93.7731 108.699V106.843L99.081 104.902H99.3516Z" fill="white"/>
<path d="M84.5512 84.3258V95.9678H82.5522V84.3258H84.5512ZM91.5556 84.3258L86.822 90.9624H83.9835L83.7116 89.2193H85.7106L89.1008 84.3258H91.5556ZM89.5086 95.9678L85.7426 90.6585L87.0379 89.1153L91.9154 95.9678H89.5086ZM97.4885 91.626H94.4581V90.0348H97.4885C98.0162 90.0348 98.4427 89.9495 98.7679 89.779C99.093 89.6084 99.3302 89.3738 99.4795 89.0753C99.6341 88.7715 99.7114 88.425 99.7114 88.0359C99.7114 87.6681 99.6341 87.3242 99.4795 87.0044C99.3302 86.6792 99.093 86.418 98.7679 86.2208C98.4427 86.0236 98.0162 85.925 97.4885 85.925H95.0738V95.9678H93.0668V84.3258H97.4885C98.3894 84.3258 99.1543 84.4857 99.7833 84.8055C100.418 85.12 100.9 85.5571 101.231 86.1169C101.561 86.6712 101.726 87.3056 101.726 88.0199C101.726 88.7715 101.561 89.4165 101.231 89.9549C100.9 90.4933 100.418 90.9064 99.7833 91.1942C99.1543 91.4821 98.3894 91.626 97.4885 91.626ZM112.809 89.8269V90.4666C112.809 91.3462 112.694 92.1351 112.465 92.8334C112.236 93.5317 111.908 94.1261 111.481 94.6165C111.06 95.1069 110.554 95.4827 109.962 95.7439C109.37 95.9998 108.715 96.1277 107.995 96.1277C107.281 96.1277 106.628 95.9998 106.036 95.7439C105.45 95.4827 104.941 95.1069 104.509 94.6165C104.077 94.1261 103.741 93.5317 103.501 92.8334C103.267 92.1351 103.15 91.3462 103.15 90.4666V89.8269C103.15 88.9474 103.267 88.1611 103.501 87.4682C103.736 86.7699 104.066 86.1755 104.493 85.6851C104.925 85.1893 105.434 84.8135 106.02 84.5577C106.612 84.2965 107.265 84.1659 107.979 84.1659C108.699 84.1659 109.354 84.2965 109.946 84.5577C110.538 84.8135 111.047 85.1893 111.473 85.6851C111.9 86.1755 112.228 86.7699 112.457 87.4682C112.691 88.1611 112.809 88.9474 112.809 89.8269ZM110.802 90.4666V89.811C110.802 89.1606 110.738 88.5876 110.61 88.0918C110.487 87.5908 110.303 87.1723 110.058 86.8365C109.818 86.4953 109.522 86.2395 109.17 86.0689C108.819 85.893 108.422 85.805 107.979 85.805C107.537 85.805 107.142 85.893 106.796 86.0689C106.449 86.2395 106.153 86.4953 105.908 86.8365C105.668 87.1723 105.484 87.5908 105.356 88.0918C105.229 88.5876 105.165 89.1606 105.165 89.811V90.4666C105.165 91.1169 105.229 91.6926 105.356 92.1937C105.484 92.6948 105.671 93.1186 105.916 93.4651C106.167 93.8062 106.465 94.0648 106.812 94.2407C107.158 94.4112 107.553 94.4965 107.995 94.4965C108.443 94.4965 108.84 94.4112 109.186 94.2407C109.533 94.0648 109.826 93.8062 110.066 93.4651C110.306 93.1186 110.487 92.6948 110.61 92.1937C110.738 91.6926 110.802 91.1169 110.802 90.4666ZM116.855 84.3258V95.9678H114.856V84.3258H116.855ZM123.859 84.3258L119.125 90.9624H116.287L116.015 89.2193H118.014L121.404 84.3258H123.859ZM121.812 95.9678L118.046 90.6585L119.341 89.1153L124.219 95.9678H121.812Z" fill="white"/>
<path d="M156.838 65.5025C171.912 65.5025 184.131 53.6905 184.131 39.1196C184.131 24.5488 171.912 12.7368 156.838 12.7368C141.765 12.7368 129.546 24.5488 129.546 39.1196C129.546 53.6905 141.765 65.5025 156.838 65.5025Z" fill="white"/>
<path d="M171.026 40.9388V35.8584H167.658C167.379 34.6928 166.912 33.5781 166.276 32.5562L168.579 30.27L164.952 26.7138L162.619 28.9717C161.577 28.3479 160.44 27.8906 159.251 27.617V24.3994H154.069V27.6734C152.88 27.947 151.743 28.4043 150.7 29.0282L148.368 26.7702L144.712 30.3265L147.044 32.6127C146.407 33.6346 145.941 34.7493 145.662 35.9149H142.466V40.9953H145.748C146.027 42.1609 146.494 43.2755 147.13 44.2975L144.798 46.5836L148.454 50.2528L150.786 47.9666C151.829 48.5905 152.966 49.0478 154.155 49.3214V52.5672H159.337V49.1803C160.526 48.9066 161.663 48.4493 162.706 47.8255L165.038 50.1117L168.666 46.5272L166.362 44.241C166.969 43.2139 167.406 42.0995 167.658 40.9388H171.026ZM156.631 44.3257C155.435 44.3257 154.266 43.9781 153.272 43.3268C152.278 42.6755 151.503 41.7498 151.045 40.6668C150.587 39.5838 150.468 38.392 150.701 37.2423C150.934 36.0926 151.51 35.0365 152.356 34.2075C153.201 33.3786 154.279 32.8141 155.451 32.5854C156.624 32.3567 157.84 32.4741 158.945 32.9227C160.049 33.3713 160.994 34.131 161.658 35.1057C162.322 36.0804 162.677 37.2264 162.677 38.3986C162.677 39.9512 162.056 41.4419 160.947 42.5503C159.838 43.6586 158.33 44.2961 156.746 44.3257H156.631ZM156.631 40.5719C156.043 40.5719 155.479 40.3429 155.063 39.9353C154.648 39.5278 154.414 38.975 154.414 38.3986C154.414 37.8222 154.648 37.2695 155.063 36.8619C155.479 36.4543 156.043 36.2254 156.631 36.2254C157.219 36.2254 157.783 36.4543 158.199 36.8619C158.614 37.2695 158.848 37.8222 158.848 38.3986C158.848 38.975 158.614 39.5278 158.199 39.9353C157.783 40.3429 157.219 40.5719 156.631 40.5719Z" fill="url(#paint2_linear_1114_262)"/>
<defs>
<filter id="filter0_d_1114_262" x="0.36099" y="8.18799" width="192.868" height="188.319" filterUnits="userSpaceOnUse" color-interpolation-filters="sRGB">
<feFlood flood-opacity="0" result="BackgroundImageFix"/>
<feColorMatrix in="SourceAlpha" type="matrix" values="0 0 0 0 0 0 0 0 0 0 0 0 0 0 0 0 0 0 127 0" result="hardAlpha"/>
<feOffset dy="3.63901"/>
<feGaussianBlur stdDeviation="1.81951"/>
<feComposite in2="hardAlpha" operator="out"/>
<feColorMatrix type="matrix" values="0 0 0 0 0 0 0 0 0 0 0 0 0 0 0 0 0 0 0.25 0"/>
<feBlend mode="normal" in2="BackgroundImageFix" result="effect1_dropShadow_1114_262"/>
<feBlend mode="normal" in="SourceGraphic" in2="effect1_dropShadow_1114_262" result="shape"/>
</filter>
<linearGradient id="paint0_linear_1114_262" x1="8563.39" y1="12715.4" x2="20524.6" y2="12715.4" gradientUnits="userSpaceOnUse">
<stop stop-color="#FCBC7D"/>
<stop offset="1" stop-color="#6A82FB"/>
</linearGradient>
<linearGradient id="paint1_linear_1114_262" x1="6967.97" y1="10472.3" x2="16642.5" y2="10472.3" gradientUnits="userSpaceOnUse">
<stop stop-color="#FCBC7D"/>
<stop offset="1" stop-color="#6A82FB"/>
</linearGradient>
<linearGradient id="paint2_linear_1114_262" x1="1459.68" y1="2001.49" x2="3300.41" y2="2001.49" gradientUnits="userSpaceOnUse">
<stop stop-color="#FCBC7D"/>
<stop offset="1" stop-color="#6A82FB"/>
</linearGradient>
</defs>
</svg>

<svg width="196" height="197" fill="none" xmlns="http://www.w3.org/2000/svg"><g filter="url(#a)"><path d="M189.6 98.6a89 89 0 0 1-15.6 50.3 92.3 92.3 0 0 1-41.6 33.4 95 95 0 0 1-101.2-19.5A88.5 88.5 0 0 1 11 64a91 91 0 0 1 34.2-40.6A94.5 94.5 0 0 1 96.8 8.2v90.3l92.8.1Z" fill="url(#b)"/></g><path d="M170.8 110.6a73.8 73.8 0 0 0-62.1-84.4A74.9 74.9 0 0 0 22.6 87a73.8 73.8 0 0 0 62 84.4 74.9 74.9 0 0 0 86.2-60.8Z" fill="#fff"/><path d="M153.4 0a38.2 38.2 0 0 0-34.1 32.5v.4a15.6 15.6 0 0 1-17 13.9 51.7 51.7 0 0 0-54.9 35.6 51 51 0 0 0 44 66.5 51.7 51.7 0 0 0 50.7-27.2 51 51 0 0 0 5.6-29.5 15.6 15.6 0 0 1 14-17h.4a38 38 0 0 0 32.7-41.7A37.7 37.7 0 0 0 153.4.2V0Z" fill="url(#c)"/><path d="M91.2 110.6v2.2c0 1-.1 2-.3 2.7-.2.8-.5 1.4-.9 1.9-.4.4-.9.8-1.4 1l-1.8.3c-.6 0-1 0-1.5-.2a3.7 3.7 0 0 1-2.2-1.8c-.3-.4-.5-1-.6-1.6a11 11 0 0 1-.2-2.3v-2.2c0-1 .1-2 .3-2.7.2-.7.5-1.3 1-1.8.3-.5.8-.8 1.3-1a5 5 0 0 1 1.8-.3c.6 0 1 0 1.5.2a3.5 3.5 0 0 1 2.2 1.7c.3.5.5 1 .6 1.7l.2 2.2Zm-2.2 2.5v-2.8l-.1-1.5-.3-1-.5-.7c-.1-.2-.3-.3-.6-.4l-.8-.2a2 2 0 0 0-.9.2l-.7.7-.4 1.1-.1 1.8v4.3l.3 1 .5.8.6.4.8.1c.3 0 .6 0 1-.2l.6-.6.4-1.2.2-1.8Zm10.4-8.2v13.6H97v-11l-3.3 1.2v-1.9L99 105h.3ZM84.6 84.3V96h-2V84.3h2Zm7 0L86.8 91H84l-.3-1.8h2l3.4-4.9h2.5Zm-2 11.7-3.9-5.3L87 89l5 6.9h-2.5Zm7.9-4.4h-3V90h3c.5 0 1 0 1.3-.2l.7-.7.2-1c0-.4 0-.8-.2-1.1l-.7-.8c-.4-.2-.8-.3-1.3-.3H95v10h-2V84.4h4.4a5 5 0 0 1 2.3.5c.6.3 1.1.8 1.4 1.3.4.6.5 1.2.5 2 0 .7-.1 1.3-.5 1.9-.3.5-.8 1-1.4 1.2-.6.3-1.4.4-2.3.4Zm15.3-1.8v.7c0 .8-.1 1.6-.3 2.3-.3.7-.6 1.3-1 1.8s-1 .9-1.5 1.1c-.6.3-1.3.4-2 .4s-1.4-.1-2-.4c-.5-.2-1-.6-1.5-1-.4-.6-.8-1.2-1-1.9-.2-.7-.3-1.5-.3-2.3v-.7c0-.9 0-1.6.3-2.3.2-.7.6-1.3 1-1.8s1-.9 1.5-1.1c.6-.3 1.3-.4 2-.4s1.4.1 2 .4c.5.2 1 .6 1.5 1l1 1.9c.2.7.3 1.4.3 2.3Zm-2 .7v-.7a7 7 0 0 0-.2-1.7l-.5-1.3c-.3-.3-.6-.6-1-.7-.3-.2-.7-.3-1.1-.3-.5 0-.9 0-1.2.3-.4.1-.6.4-.9.7l-.5 1.3a7 7 0 0 0-.2 1.7v.7c0 .6 0 1.2.2 1.7 0 .5.3 1 .5 1.3.3.3.6.6 1 .7.3.2.7.3 1 .3.5 0 1 0 1.3-.3.3-.1.6-.4.9-.7l.5-1.3.2-1.7Zm6-6.2V96h-2V84.3h2Zm7 0-4.7 6.7h-2.8l-.3-1.8h2l3.4-4.9h2.5Zm-2 11.7-3.8-5.3 1.3-1.6 5 6.9h-2.5ZM156.8 65.5c15.1 0 27.3-11.8 27.3-26.4a26.8 26.8 0 0 0-27.3-26.4c-15 0-27.3 11.8-27.3 26.4a26.8 26.8 0 0 0 27.3 26.4Z" fill="#fff"/><path d="M171 41v-5.1h-3.3c-.3-1.2-.8-2.3-1.4-3.3l2.3-2.3-3.6-3.6-2.4 2.3c-1-.7-2.2-1.1-3.3-1.4v-3.2H154v3.3c-1.2.2-2.4.7-3.4 1.3l-2.3-2.2-3.7 3.5 2.3 2.3c-.6 1-1 2.1-1.3 3.3h-3.2V41h3.2c.3 1.2.8 2.3 1.4 3.3l-2.3 2.3 3.7 3.7 2.3-2.3c1 .6 2.2 1 3.4 1.3v3.3h5.1v-3.4c1.2-.3 2.4-.8 3.4-1.4l2.3 2.3 3.7-3.6-2.3-2.3c.6-1 1-2.1 1.3-3.3h3.3Zm-14.4 3.3a6.1 6.1 0 0 1-5.6-3.6 5.8 5.8 0 0 1 1.4-6.5 6 6 0 0 1 6.5-1.3 5.8 5.8 0 0 1 2 9.6 6.1 6.1 0 0 1-4.2 1.8Zm0-3.7c-.6 0-1.1-.3-1.5-.7a2.2 2.2 0 0 1 0-3 2.2 2.2 0 0 1 3.1 0 2.2 2.2 0 0 1 0 3c-.4.4-1 .7-1.6.7Z" fill="url(#d)"/><defs><linearGradient id="b" x1="8563.4" y1="12715.4" x2="20524.6" y2="12715.4" gradientUnits="userSpaceOnUse"><stop stop-color="#FCBC7D"/><stop offset="1" stop-color="#6A82FB"/></linearGradient><linearGradient id="c" x1="6968" y1="10472.3" x2="16642.5" y2="10472.3" gradientUnits="userSpaceOnUse"><stop stop-color="#FCBC7D"/><stop offset="1" stop-color="#6A82FB"/></linearGradient><linearGradient id="d" x1="1459.7" y1="2001.5" x2="3300.4" y2="2001.5" gradientUnits="userSpaceOnUse"><stop stop-color="#FCBC7D"/><stop offset="1" stop-color="#6A82FB"/></linearGradient><filter id="a" x=".4" y="8.2" width="192.9" height="188.3" filterUnits="userSpaceOnUse" color-interpolation-filters="sRGB"><feFlood flood-opacity="0" result="BackgroundImageFix"/><feColorMatrix in="SourceAlpha" values="0 0 0 0 0 0 0 0 0 0 0 0 0 0 0 0 0 0 127 0" result="hardAlpha"/><feOffset dy="3.6"/><feGaussianBlur stdDeviation="1.8"/><feComposite in2="hardAlpha" operator="out"/><feColorMatrix values="0 0 0 0 0 0 0 0 0 0 0 0 0 0 0 0 0 0 0.25 0"/><feBlend in2="BackgroundImageFix" result="effect1_dropShadow_1114_262"/><feBlend in="SourceGraphic" in2="effect1_dropShadow_1114_262" result="shape"/></filter></defs></svg>
